Gruvbox-Plus-Dark/status/symbolic/battery-empty-symbolic.svg

<svg width="16" height="16" version="1.1" xmlns="http://www.w3.org/2000/svg">
  <defs>
    <style type="text/css">.ColorScheme-Text { color:#ebdbb2; } .ColorScheme-Highlight { color:#458588; }</style>
  </defs>
  <path class="ColorScheme-Highlight" fill="currentColor" d="m6 1v1h-3v12c0 0.554 0.446 1 1 1h8c0.554 0 1-0.446 1-1v-12h-3v-1zm1 3h2v4l-0.25 2h-1.5l-0.25-2zm0 7h2v2h-2z"/>
</svg>

<svg xmlns="http://www.w3.org/2000/svg" width="16" height="16" version="1.1">
 <path style="fill:#458588" class="warning" d="M 6,1 V 2 H 3 V 14 C 3,14.554 3.446,15 4,15 H 12 C 12.554,15 13,14.554 13,14 V 2 H 10 V 1 Z M 7,4 H 9 V 8 L 8.75,10 H 7.25 L 7,8 Z M 7,11 H 9 V 13 H 7 Z"/>
</svg>
